img/icon-face.svg

<svg width="63" height="74" viewBox="0 0 63 74" fill="none" xmlns="http://www.w3.org/2000/svg">
<path d="M39.2885 60.8693C39.2885 60.8693 38.67 60.8693 38.2357 61.0534C37.8014 61.2375 35.1167 63.9465 34.1691 66.3005C33.1821 68.7334 32.6425 72.9942 32.6425 72.9942C32.6425 72.9942 13.0994 69.746 7.26941 63.6704C7.49313 63.5389 10.8095 60.9219 10.8095 60.9219L11.3754 55.2145L15.7841 51.7164L15.113 46.351L15.9158 40.0255L37.6566 40.8014L39.2885 60.8693Z" fill="#F8F9F9" stroke="#646464" stroke-width="0.5" stroke-miterlimit="10"/>
<path d="M25.7728 28.4926L26.3387 21.1282L30.958 19.366L32.3662 12.4619L39.7491 12.2778C39.7491 12.2778 41.4073 7.17538 40.9204 4.17703C49.0272 6.25484 54.265 13.6718 54.265 13.6718C54.265 13.6718 59.687 20.7863 60.6872 30.0575C60.6872 30.0575 61.3847 30.886 60.7925 31.6882C60.2003 32.4904 58.3973 35.5939 58.3973 35.8438C58.3973 35.8964 59.6607 39.1183 59.6607 39.1183L59.1212 46.7194C59.1212 46.7194 58.4631 49.2049 58.3579 49.4547C58.2526 49.7046 58.1868 50.5594 58.292 50.9407C58.3973 51.3221 59.0159 51.8744 58.2526 52.8739C57.4893 53.8733 56.976 54.7018 56.976 54.7018C56.976 54.7018 57.3577 55.2936 57.4235 55.9774C57.4893 56.6744 56.9365 57.0821 56.726 57.1216C56.5154 57.161 55.9232 57.1873 55.5152 57.8843C55.0941 58.5813 54.4756 59.8963 54.7914 61.6585C55.1072 63.4207 53.7649 65.7352 49.8694 65.5643C44.9211 65.3539 30.4448 56.464 30.4448 56.464C30.4448 56.464 27.9706 55.2805 26.1808 50.0597C25.3517 47.6399 25.378 46.075 25.378 46.075C25.378 46.075 25.207 44.8257 24.3779 44.9309C24.3779 44.9309 23.6146 45.3123 23.1539 45.3123C22.6933 45.3123 18.6136 43.6553 17.7977 43.0241C16.8633 42.3008 14.7313 40.486 14.1654 38.0926L13.6522 35.8833C13.6522 35.8833 13.389 34.9496 13.8101 33.9633C14.2312 32.977 14.6918 31.5041 15.692 30.5309C16.6922 29.5578 18.7057 29.2553 19.4296 29.5315C21.8642 30.2942 23.2329 32.7534 23.2329 32.7534L25.7728 28.4926Z" fill="#F7F8F9" stroke="#646464" stroke-width="0.5" stroke-miterlimit="10"/>
<path d="M58.5553 31.6354C58.4105 31.7406 57.6604 32.8452 57.8973 34.1209C58.1341 35.3965 60.6478 40.9066 60.6478 40.9066C60.753 41.0907 61.0821 41.8666 61.5953 42.3663C62.1086 42.8529 62.5034 44.0233 62.5034 44.0233C62.5034 44.0233 62.8455 45.1016 62.0164 45.746C61.1873 46.3904 61.0821 46.7323 60.5162 47.0742C59.9503 47.4162 58.9106 47.1268 58.5948 47.3373C58.2789 47.5477 58.0289 47.6003 57.9762 47.8107" fill="#FBFCFD"/>
<path d="M58.5553 31.6354C58.4105 31.7406 57.6604 32.8452 57.8973 34.1209C58.1341 35.3965 60.6478 40.9066 60.6478 40.9066C60.753 41.0907 61.0821 41.8666 61.5953 42.3663C62.1086 42.8529 62.5034 44.0233 62.5034 44.0233C62.5034 44.0233 62.8455 45.1016 62.0164 45.746C61.1873 46.3904 61.0821 46.7323 60.5162 47.0742C59.9503 47.4162 58.9106 47.1268 58.5948 47.3373C58.2789 47.5477 58.0289 47.6003 57.9762 47.8107" stroke="#646464" stroke-width="0.5" stroke-miterlimit="10"/>
<path d="M54.265 30.8202C55.252 30.6887 55.2388 25.8229 40.9467 29.9128" stroke="#646464" stroke-width="0.5" stroke-miterlimit="10"/>
<path d="M43.6973 34.9628C43.6973 34.9628 47.8164 35.2784 49.7905 34.7524" stroke="#646464" stroke-width="0.5" stroke-miterlimit="10"/>
<path d="M49.4747 35.6464C49.4747 35.6464 48.0139 37.5138 44.171 35.6464" stroke="#646464" stroke-width="0.5" stroke-miterlimit="10"/>
<path d="M58.5026 51.48C58.5026 51.48 58.2263 51.5326 57.9367 51.7167C57.6472 51.9008 57.3708 51.2038 57.3708 51.2038C57.3708 51.2038 57.1866 50.9408 56.6997 51.2958C56.2127 51.6378 53.5807 53.3079 49.8958 53.4" stroke="#646464" stroke-width="0.5" stroke-miterlimit="10"/>
<path d="M56.2522 57.2267C56.2522 57.2267 54.7388 57.4371 54.0676 56.9637C53.3964 56.4902 50.488 54.2678 49.8826 53.3998" stroke="#646464" stroke-width="0.5" stroke-miterlimit="10"/>
<path d="M50.2247 53.6891C50.2247 53.6891 51.7776 53.8075 52.9489 53.7023C53.9228 53.6102 54.8308 54.1231 54.8835 54.1363C54.9361 54.1494 56.1469 53.4656 56.9628 54.6228" stroke="#646464" stroke-width="0.5" stroke-miterlimit="10"/>
<path d="M55.173 53.9522C55.1467 53.7418 55.3309 53.5577 55.3309 53.5577C55.3309 53.5577 55.6599 53.2552 56.4232 53.2684C55.3967 53.3473 55.6468 53.5051 55.3836 53.4131C55.2388 53.3604 54.4492 53.1106 53.9886 53.2552C53.5279 53.3999 53.3042 53.492 52.9357 53.7024" stroke="#646464" stroke-width="0.5" stroke-miterlimit="10"/>
<path d="M59.029 46.8376C59.029 46.8376 59.5948 46.2195 58.1604 45.8513C56.7127 45.4831 54.3439 46.7193 54.3439 46.7193C54.3439 46.7193 54.0938 46.7982 53.4226 46.7193C52.7515 46.6404 52.5672 45.9171 52.6857 45.5094" stroke="#646464" stroke-width="0.5" stroke-miterlimit="10"/>
<path d="M30.7869 31.596L16.5474 27.2432L23.5092 37.2903L30.7869 31.596Z" fill="#F7F7F7" stroke="#646464" stroke-width="0.5" stroke-miterlimit="10"/>
<path d="M17.4029 49.6651L8.90137 38.7106L13.9023 58.3445L17.4029 49.6651Z" fill="#F7F7F7" stroke="#646464" stroke-width="0.5" stroke-miterlimit="10"/>
<path d="M9.00656 16.4727L11.994 25.3363L23.9962 28.0453L9.00656 16.4727Z" fill="#F7F7F7" stroke="#646464" stroke-width="0.5" stroke-miterlimit="10"/>
<path d="M12.5862 42.3927L15.1656 33.7133L8.19063 26.441L12.5862 42.3927Z" fill="#F7F7F7" stroke="#646464" stroke-width="0.5" stroke-miterlimit="10"/>
<path d="M8.11169 44.4048L5.82179 56.4245L13.3758 61.0667L8.11169 44.4048Z" fill="#F7F7F7" stroke="#646464" stroke-width="0.5" stroke-miterlimit="10"/>
<path d="M39.7755 13.5533L44.6053 6.00479L29.3393 1.36261L39.7755 13.5533Z" fill="#F7F7F7" stroke="#646464" stroke-width="0.5" stroke-miterlimit="10"/>
<path d="M9.71726 9.26611L8.92764 15.4075L22.3775 14.6316L9.71726 9.26611Z" fill="#F7F7F7" stroke="#646464" stroke-width="0.5" stroke-miterlimit="10"/>
<path d="M25.6545 18.9584L21.8906 23.6795L33.0243 28.2427L25.6545 18.9584Z" fill="#F7F7F7" stroke="#646464" stroke-width="0.5" stroke-miterlimit="10"/>
<path d="M12.0466 16.5517L20.2192 23.2717L23.5751 17.6695L12.0466 16.5517Z" fill="#F7F7F7" stroke="#646464" stroke-width="0.5" stroke-miterlimit="10"/>
<path d="M4.46627 13.2904L2.49222 21.1808L9.65144 26.2306L4.46627 13.2904Z" fill="#F7F7F7" stroke="#646464" stroke-width="0.5" stroke-miterlimit="10"/>
<path d="M6.28238 14.2897L7.58525 7.63544L2.71593 3.34833L6.28238 14.2897Z" fill="#F7F7F7" stroke="#646464" stroke-width="0.5" stroke-miterlimit="10"/>
<path d="M29.8657 8.10898L27.589 14.0794L37.4066 13.1983L29.8657 8.10898Z" fill="#F7F7F7" stroke="#646464" stroke-width="0.5" stroke-miterlimit="10"/>
<path d="M28.8129 4.78183L19.956 6.88593L26.3519 13.6322L28.8129 4.78183Z" fill="#F7F7F7" stroke="#646464" stroke-width="0.5" stroke-miterlimit="10"/>
<path d="M32.2214 25.1917L33.2742 18.0772L24.2199 14.2372L32.2214 25.1917Z" fill="#F7F7F7" stroke="#646464" stroke-width="0.5" stroke-miterlimit="10"/>
<path d="M12.2045 3.74307L1.89998 0.600067L8.36171 6.41265L12.2045 3.74307Z" fill="#F7F7F7" stroke="#646464" stroke-width="0.5" stroke-miterlimit="10"/>
<path d="M13.6391 1.09961L19.1665 5.74179L28.0234 2.76974L13.6391 1.09961Z" fill="#F7F7F7" stroke="#646464" stroke-width="0.5" stroke-miterlimit="10"/>
<path d="M10.441 7.85916L20.9298 11.7517L15.6525 4.703L10.441 7.85916Z" fill="#F7F7F7" stroke="#646464" stroke-width="0.5" stroke-miterlimit="10"/>
</svg>

<svg width="63" height="74" viewBox="0 0 63 74" fill="none" xmlns="http://www.w3.org/2000/svg"><path d="M39.288 60.87s-.618 0-1.052.183c-.435.184-3.12 2.894-4.067 5.248-.987 2.432-1.526 6.693-1.526 6.693S13.098 69.746 7.268 63.67c.224-.131 3.54-2.748 3.54-2.748l.566-5.707 4.41-3.499-.672-5.365.803-6.325 21.74.775L39.29 60.87z" fill="#F8F9F9" stroke="#646464" stroke-width=".5" stroke-miterlimit="10"/><path d="M25.773 28.493l.566-7.365 4.619-1.762 1.408-6.904 7.383-.184s1.658-5.103 1.171-8.101c8.107 2.078 13.345 9.495 13.345 9.495s5.422 7.114 6.422 16.386c0 0 .698.828.105 1.63-.592.802-2.395 3.906-2.395 4.156 0 .052 1.264 3.274 1.264 3.274l-.54 7.601s-.658 2.486-.763 2.736c-.105.25-.171 1.104-.066 1.486.105.381.724.933-.04 1.933-.763 1-1.276 1.828-1.276 1.828s.382.592.447 1.275c.066.697-.486 1.105-.697 1.145-.21.039-.803.065-1.21.762-.422.697-1.04 2.012-.725 3.774.316 1.763-1.026 4.077-4.922 3.906-4.948-.21-19.424-9.1-19.424-9.1s-2.474-1.183-4.264-6.404c-.83-2.42-.803-3.985-.803-3.985s-.171-1.25-1-1.144c0 0-.763.381-1.224.381-.46 0-4.54-1.657-5.356-2.288-.935-.723-3.067-2.538-3.633-4.931l-.513-2.21s-.263-.933.158-1.92c.421-.986.882-2.459 1.882-3.432 1-.973 3.014-1.276 3.738-1 2.434.763 3.803 3.222 3.803 3.222l2.54-4.26z" fill="#F7F8F9" stroke="#646464" stroke-width=".5" stroke-miterlimit="10"/><path d="M58.555 31.635c-.145.106-.895 1.21-.658 2.486.237 1.276 2.75 6.786 2.75 6.786.106.184.435.96.948 1.46.514.486.908 1.656.908 1.656s.343 1.079-.487 1.723c-.829.644-.934.986-1.5 1.328-.566.342-1.605.053-1.921.263-.316.21-.566.263-.619.474" fill="#FBFCFD"/><path d="M58.555 31.635c-.145.106-.895 1.21-.658 2.486.237 1.276 2.75 6.786 2.75 6.786.106.184.435.96.948 1.46.514.486.908 1.656.908 1.656s.343 1.079-.487 1.723c-.829.644-.934.986-1.5 1.328-.566.342-1.605.053-1.921.263-.316.21-.566.263-.619.474M54.265 30.82c.987-.131.974-4.997-13.318-.907m2.75 5.05s4.12.315 6.093-.21m-.315.893s-1.461 1.868-5.304 0M58.503 51.48s-.277.053-.566.237c-.29.184-.566-.513-.566-.513s-.184-.263-.671.092c-.487.342-3.12 2.012-6.804 2.104m6.356 3.827s-1.513.21-2.184-.263c-.672-.474-3.58-2.696-4.185-3.564" stroke="#646464" stroke-width=".5" stroke-miterlimit="10"/><path d="M50.225 53.69s1.553.117 2.724.012c.974-.092 1.882.421 1.934.434.053.013 1.264-.67 2.08.487" stroke="#646464" stroke-width=".5" stroke-miterlimit="10"/><path d="M55.173 53.952c-.026-.21.158-.394.158-.394s.329-.303 1.092-.29c-1.026.08-.776.237-1.04.145-.144-.053-.934-.302-1.394-.158-.461.145-.685.237-1.053.447m6.093-6.864s.566-.619-.869-.987c-1.447-.368-3.816.868-3.816.868s-.25.08-.921 0c-.672-.079-.856-.802-.737-1.21" stroke="#646464" stroke-width=".5" stroke-miterlimit="10"/><path d="M30.787 31.596l-14.24-4.353L23.51 37.29l7.278-5.694zM17.403 49.665L8.9 38.711l5.001 19.633 3.5-8.679zM9.007 16.473l2.987 8.863 12.002 2.71-14.99-11.573zm3.579 25.92l2.58-8.68-6.975-7.272 4.395 15.952zm-4.474 2.012l-2.29 12.02 7.554 4.642-5.264-16.662zm31.664-30.852l4.83-7.548-15.267-4.642 10.437 12.19zM9.717 9.266l-.79 6.142 13.45-.776-12.66-5.366zm15.937 9.692l-3.763 4.722 11.133 4.563-7.37-9.285zm-13.607-2.406l8.172 6.72 3.356-5.602-11.528-1.118zM4.466 13.29l-1.974 7.89 7.16 5.05-5.186-12.94zm1.816 1l1.303-6.655-4.87-4.287L6.283 14.29zm23.584-6.181l-2.277 5.97 9.818-.88-7.541-5.09zm-1.053-3.327l-8.857 2.104 6.396 6.746 2.46-8.85zm3.408 20.41l1.053-7.115-9.054-3.84 8.001 10.955zM12.204 3.743L1.9.6l6.462 5.813 3.842-2.67zM13.64 1.1l5.526 4.642 8.857-2.972L13.64 1.1zm-3.199 6.76l10.489 3.892-5.277-7.049-5.212 3.156z" fill="#F7F7F7" stroke="#646464" stroke-width=".5" stroke-miterlimit="10"/></svg>
